X:194
T: DIE DUNKELN SCHATTEN FLIEHEN
N: F0339
O: Europa, Mitteleuropa, Deutschland
R: Jugend - Lied, Tageszeiten, Morgen, religioes
M: 4/4
L: 1/4
K: A
E | ABcd | ecz
e | fedc | B2z
E | ABcd | ecz
e | edcB | A2z2
AAA | d2d | ede | f2
A | Aff | edc | Bcd | c2
c | e2c | edc | BcB | A2z

